black/svg/E154.svg

<svg id="emoji" viewBox="0 0 72 72" xmlns="http://www.w3.org/2000/svg">
  <g id="line">
    <path fill="none" stroke="#000" stroke-linecap="round" stroke-linejoin="round" stroke-width="2" d="M44 21H52V27.5C52 30.7382 48.7231 41.5133 47.475 45.5M44 23.5H49.5V27.5C49.5 28.9799 47.5728 33.4381 46 36.8301"/>
    <path fill="none" stroke="#000" stroke-linecap="round" stroke-linejoin="round" stroke-width="2" d="M22.5 45.42C21.2337 41.3711 18 30.7168 18 27.5C18 23.5 18 21 18 21H22C22 21 22 22.5 22 25C22 26.6667 23.7778 28.7778 24.963 30"/>
    <path fill="#000" d="M43 17H42C42 17.0494 42.0037 17.0988 42.011 17.1476L43 17ZM27 17L27.989 17.1476C27.9963 17.0988 28 17.0494 28 17H27ZM22 50.5L21.011 50.3524C20.9885 50.5027 21.0006 50.6562 21.0464 50.8011L22 50.5ZM25 60L24.0464 60.3011C24.1778 60.7172 24.5637 61 25 61V60ZM45 60V61C45.4363 61 45.8222 60.7172 45.9536 60.3011L45 60ZM48 50.5L48.9536 50.8011C48.9994 50.6562 49.0115 50.5027 48.989 50.3524L48 50.5ZM35 13C37.0517 13 38.8617 13.5218 40.1269 14.3125C41.4061 15.112 42 16.0885 42 17H44C44 15.1501 42.803 13.6266 41.1869 12.6165C39.5566 11.5975 37.3666 11 35 11V13ZM28 17C28 16.0885 28.5939 15.112 29.8731 14.3125C31.1383 13.5218 32.9483 13 35 13V11C32.6334 11 30.4434 11.5975 28.8131 12.6165C27.197 13.6266 26 15.1501 26 17H28ZM26.011 16.8524L21.011 50.3524L22.989 50.6476L27.989 17.1476L26.011 16.8524ZM21.0464 50.8011L24.0464 60.3011L25.9536 59.6989L22.9536 50.1989L21.0464 50.8011ZM25 61H35V59H25V61ZM35 61H45V59H35V61ZM45.9536 60.3011L48.9536 50.8011L47.0464 50.1989L44.0464 59.6989L45.9536 60.3011ZM48.989 50.3524L43.989 16.8524L42.011 17.1476L47.011 50.6476L48.989 50.3524Z"/>
    <path fill="none" stroke="#000" stroke-linecap="round" stroke-width="2" d="M35.5 57C34.3954 57 33.5 56.1046 33.5 55C33.5 53.8954 34.3954 53 35.5 53"/>
    <path fill="none" stroke="#000" stroke-linecap="round" stroke-linejoin="round" stroke-width="2" d="M23 50H44.5"/>
    <path fill="none" stroke="#000" stroke-linecap="round" stroke-width="2" d="M27 17H40"/>
    <rect x="33" y="8" width="4" height="4" fill="none" stroke="#000" stroke-linejoin="round" stroke-width="2"/>
  </g>
</svg>

<svg viewBox="0 0 72 72" xmlns="http://www.w3.org/2000/svg">
  <path fill="#B3B3B3" d="M68 4v64H4V4h64zm4-4H0v72h72V0z"/>
  <path fill="none" stroke="#00A5FF" stroke-miterlimit="10" stroke-width="0.1" d="M12.923 10.958h46.154A1.923 1.923 0 0161 12.881v46.154a1.923 1.923 0 01-1.923 1.923H12.923A1.923 1.923 0 0111 59.035V12.881a1.923 1.923 0 011.923-1.923v0z"/>
  <path fill="none" stroke="#00A5FF" stroke-miterlimit="10" stroke-width="0.1" d="M53.746 4H18.254A2.254 2.254 0 0016 6.254v59.492A2.254 2.254 0 0018.254 68h35.492A2.254 2.254 0 0056 65.746V6.254A2.254 2.254 0 0053.746 4z"/>
  <path fill="none" stroke="#00A5FF" stroke-miterlimit="10" stroke-width="0.1" d="M68 53.746V18.254A2.254 2.254 0 0065.746 16H6.254A2.254 2.254 0 004 18.254v35.492A2.254 2.254 0 006.254 56h59.492A2.254 2.254 0 0068 53.746z"/>
  <path fill="none" stroke="#00A5FF" stroke-miterlimit="10" stroke-width="0.1" d="M36 65c16.016 0 29-12.984 29-29S52.016 7 36 7 7 19.984 7 36s12.984 29 29 29z"/>
  <g fill="none" stroke="#fff" stroke-linecap="round" stroke-linejoin="round" stroke-miterlimit="10" stroke-width="6">
    <path d="M44 21h8v6.5c0 3.238-3.277 14.013-4.525 18M44 23.5h5.5v4c0 1.48-1.927 5.938-3.5 9.33m-23.5 8.59C21.234 41.371 18 30.717 18 27.5V21h4v4c0 1.667 1.778 3.778 2.963 5"/>
    <path d="M43 17h-1c0 .05.004.099.011.148L43 17zm-16 0l.989.148A.998.998 0 0028 17h-1zm-5 33.5l-.989-.148a.998.998 0 00.035.45L22 50.5zm3 9.5l-.954.301A1 1 0 0025 61v-1zm20 0v1a1 1 0 00.954-.699L45 60zm3-9.5l.954.301a.998.998 0 00.035-.449L48 50.5zM35 13c2.052 0 3.862.522 5.127 1.313C41.407 15.111 42 16.087 42 17h2c0-1.85-1.197-3.373-2.813-4.383C39.557 11.597 37.367 11 35 11v2zm-7 4c0-.912.594-1.888 1.873-2.688C31.138 13.523 32.948 13 35 13v-2c-2.367 0-4.557.598-6.187 1.617C27.197 13.627 26 15.15 26 17h2zm-1.989-.148l-5 33.5 1.978.296 5-33.5-1.978-.296zm-4.965 33.95l3 9.5 1.908-.603-3-9.5-1.908.602zM25 61h10v-2H25v2zm10 0h10v-2H35v2zm10.954-.699l3-9.5-1.908-.602-3 9.5 1.908.602zm3.035-9.949l-5-33.5-1.978.296 5 33.5 1.978-.296zM35.5 57a2 2 0 110-4M23 50h21.5M27 17h13"/>
    <path d="M33 8h4v4h-4z"/>
  </g>
  <path fill="#3F3F3F" fill-rule="evenodd" d="M49.5 21H42v2.5h7.5v4C49.5 30 44 41 44 41l3 6s5-15.5 5-19.5V21h-2.5z" clip-rule="evenodd"/>
  <path fill="#d0cfce" d="M18 27.5V21h4v4c0 2.5 4 6 4 6l-3 16s-5-15.5-5-19.5z"/>
  <path fill="#d0cfce" fill-rule="evenodd" d="M27.11 17c.635-2.838 3.926-5 7.89-5 3.964 0 7.255 2.162 7.89 5H43l5 33.5-3 9.5H25l-3-9.5L27 17h.11z" clip-rule="evenodd"/>
  <path fill="#D0CFCE" fill-rule="evenodd" d="M32.667 60H30l-2-9.5L31.333 17H34l-3.333 33.5 2 9.5z" clip-rule="evenodd"/>
  <path fill="#3F3F3F" fill-rule="evenodd" d="M47.776 49H22.224L22 50.5l3 9.5h20l3-9.5-.224-1.5z" clip-rule="evenodd"/>
  <circle cx="35.5" cy="55" r="2" fill="#D22F27" stroke="#9B9B9A" stroke-width="2"/>
  <path fill="#3F3F3F" d="M33 8h4v4h-4z"/>
  <g>
    <path fill="none" stroke="#000" stroke-linecap="round" stroke-linejoin="round" stroke-width="2" d="M44 21h8v6.5c0 3.238-3.277 14.013-4.525 18M44 23.5h5.5v4c0 1.48-1.927 5.938-3.5 9.33m-23.5 8.59C21.234 41.371 18 30.717 18 27.5V21h4v4c0 1.667 1.778 3.778 2.963 5"/>
    <path d="M43 17h-1c0 .05.004.099.011.148L43 17zm-16 0l.989.148A.998.998 0 0028 17h-1zm-5 33.5l-.989-.148a.998.998 0 00.035.45L22 50.5zm3 9.5l-.954.301A1 1 0 0025 61v-1zm20 0v1a1 1 0 00.954-.699L45 60zm3-9.5l.954.301a.998.998 0 00.035-.449L48 50.5zM35 13c2.052 0 3.862.522 5.127 1.313C41.407 15.111 42 16.087 42 17h2c0-1.85-1.197-3.373-2.813-4.383C39.557 11.597 37.367 11 35 11v2zm-7 4c0-.912.594-1.888 1.873-2.688C31.138 13.523 32.948 13 35 13v-2c-2.367 0-4.557.598-6.187 1.617C27.197 13.627 26 15.15 26 17h2zm-1.989-.148l-5 33.5 1.978.296 5-33.5-1.978-.296zm-4.965 33.95l3 9.5 1.908-.603-3-9.5-1.908.602zM25 61h10v-2H25v2zm10 0h10v-2H35v2zm10.954-.699l3-9.5-1.908-.602-3 9.5 1.908.602zm3.035-9.949l-5-33.5-1.978.296 5 33.5 1.978-.296z"/>
    <path fill="none" stroke="#000" stroke-linecap="round" stroke-width="2" d="M35.5 57a2 2 0 110-4"/>
    <path fill="none" stroke="#000" stroke-linecap="round" stroke-linejoin="round" stroke-width="2" d="M23 50h21.5"/>
    <path fill="none" stroke="#000" stroke-linecap="round" stroke-width="2" d="M27 17h13"/>
    <path fill="none" stroke="#000" stroke-linejoin="round" stroke-width="2" d="M33 8h4v4h-4z"/>
  </g>
</svg>
